packages/sources/icons/src/vitamix/instagram-fill.svg

<svg width="16" height="16" viewBox="0 0 16 16" xmlns="http://www.w3.org/2000/svg"><path d="M8.00004 1.33334C9.81137 1.33334 10.0374 1.34001 10.748 1.37334C11.458 1.40668 11.9414 1.51801 12.3667 1.68334C12.8067 1.85268 13.1774 2.08201 13.548 2.45201C13.887 2.78527 14.1493 3.1884 14.3167 3.63334C14.4814 4.05801 14.5934 4.54201 14.6267 5.25201C14.658 5.96268 14.6667 6.18868 14.6667 8.00001C14.6667 9.81134 14.66 10.0373 14.6267 10.748C14.5934 11.458 14.4814 11.9413 14.3167 12.3667C14.1498 12.8119 13.8875 13.2151 13.548 13.548C13.2147 13.8869 12.8116 14.1492 12.3667 14.3167C11.942 14.4813 11.458 14.5933 10.748 14.6267C10.0374 14.658 9.81137 14.6667 8.00004 14.6667C6.18871 14.6667 5.96271 14.66 5.25204 14.6267C4.54204 14.5933 4.05871 14.4813 3.63337 14.3167C3.18826 14.1497 2.78506 13.8873 2.45204 13.548C2.11298 13.2148 1.85066 12.8117 1.68337 12.3667C1.51804 11.942 1.40671 11.458 1.37337 10.748C1.34204 10.0373 1.33337 9.81134 1.33337 8.00001C1.33337 6.18868 1.34004 5.96268 1.37337 5.25201C1.40671 4.54134 1.51804 4.05868 1.68337 3.63334C1.8502 3.18813 2.11258 2.78489 2.45204 2.45201C2.78515 2.11283 3.18833 1.8505 3.63337 1.68334C4.05871 1.51801 4.54137 1.40668 5.25204 1.37334C5.96271 1.34201 6.18871 1.33334 8.00004 1.33334ZM8.00004 4.66668C7.11599 4.66668 6.26814 5.01787 5.64302 5.64299C5.0179 6.26811 4.66671 7.11595 4.66671 8.00001C4.66671 8.88406 5.0179 9.73191 5.64302 10.357C6.26814 10.9822 7.11599 11.3333 8.00004 11.3333C8.8841 11.3333 9.73194 10.9822 10.3571 10.357C10.9822 9.73191 11.3334 8.88406 11.3334 8.00001C11.3334 7.11595 10.9822 6.26811 10.3571 5.64299C9.73194 5.01787 8.8841 4.66668 8.00004 4.66668ZM12.3334 4.50001C12.3334 4.279 12.2456 4.06703 12.0893 3.91075C11.933 3.75447 11.7211 3.66668 11.5 3.66668C11.279 3.66668 11.0671 3.75447 10.9108 3.91075C10.7545 4.06703 10.6667 4.279 10.6667 4.50001C10.6667 4.72102 10.7545 4.93299 10.9108 5.08927C11.0671 5.24555 11.279 5.33334 11.5 5.33334C11.7211 5.33334 11.933 5.24555 12.0893 5.08927C12.2456 4.93299 12.3334 4.72102 12.3334 4.50001ZM8.00004 6.00001C8.53047 6.00001 9.03918 6.21072 9.41425 6.5858C9.78933 6.96087 10 7.46958 10 8.00001C10 8.53044 9.78933 9.03915 9.41425 9.41422C9.03918 9.7893 8.53047 10 8.00004 10C7.46961 10 6.9609 9.7893 6.58583 9.41422C6.21075 9.03915 6.00004 8.53044 6.00004 8.00001C6.00004 7.46958 6.21075 6.96087 6.58583 6.5858C6.9609 6.21072 7.46961 6.00001 8.00004 6.00001Z"/></svg>

<svg width="16" height="16" xmlns="http://www.w3.org/2000/svg"><path d="M8 1.333c1.811 0 2.037.007 2.748.04.71.034 1.193.145 1.619.31.44.17.81.399 1.181.769.339.333.601.736.769 1.181.164.425.276.909.31 1.619.031.71.04.937.04 2.748 0 1.811-.007 2.037-.04 2.748-.034.71-.146 1.193-.31 1.619-.167.445-.43.848-.769 1.181a3.276 3.276 0 0 1-1.181.769c-.425.164-.909.276-1.619.31-.71.031-.937.04-2.748.04-1.811 0-2.037-.007-2.748-.04-.71-.034-1.193-.146-1.619-.31a3.26 3.26 0 0 1-1.181-.769 3.269 3.269 0 0 1-.769-1.181c-.165-.425-.276-.909-.31-1.619-.031-.71-.04-.937-.04-2.748 0-1.811.007-2.037.04-2.748.034-.71.145-1.193.31-1.619.167-.445.43-.848.769-1.181.333-.34.736-.601 1.181-.769.426-.165.908-.276 1.619-.31.71-.031.937-.04 2.748-.04Zm0 3.334a3.333 3.333 0 1 0 0 6.666 3.333 3.333 0 0 0 0-6.666Zm4.333-.167a.833.833 0 1 0-1.666 0 .833.833 0 0 0 1.666 0ZM8 6a2 2 0 1 1 0 4 2 2 0 0 1 0-4Z"/></svg>
